dist/icons/absolute-items/3.svg

<svg width="60" height="60" viewBox="0 0 60 60" fill="none" xmlns="http://www.w3.org/2000/svg">
<path d="M29.9998 25.1078C30.369 25.1078 30.7383 24.8309 30.7383 24.3693C30.7383 23.9078 30.4614 23.6309 29.9998 23.6309C26.5844 23.6309 23.7229 26.4001 23.7229 29.9078C23.7229 33.4155 26.4921 36.1847 29.9998 36.1847C33.5075 36.1847 36.2767 33.4155 36.2767 29.9078C36.2767 29.5386 35.9998 29.1693 35.5383 29.1693C35.0767 29.1693 34.7998 29.4462 34.7998 29.9078C34.7998 32.5847 32.5844 34.8001 29.9075 34.8001C27.2306 34.8001 25.0152 32.5847 25.0152 29.9078C25.0152 27.2309 27.3229 25.1078 29.9998 25.1078Z" fill="black" fill-opacity="0.8"/>
<path d="M49.6615 14.5848C49.3845 14.7694 49.2922 15.2309 49.4768 15.5079C52.6153 19.6617 54.1845 24.6463 54.1845 29.9079C54.1845 43.3848 43.3845 54.1848 29.9999 54.1848C16.6153 54.1848 5.72299 43.3848 5.72299 30.0002C5.72299 16.6155 16.6153 5.72324 29.9999 5.72324C35.2615 5.72324 40.2461 7.38478 44.3999 10.4309C44.6768 10.6155 45.1384 10.6155 45.323 10.2463C45.5076 9.96939 45.5076 9.50785 45.1384 9.32324C40.7076 6.00016 35.4461 4.33862 29.9076 4.33862C15.8768 4.33862 4.33838 15.8771 4.33838 30.0002C4.33838 44.1232 15.7845 55.6617 29.9999 55.6617C44.2153 55.6617 55.6615 44.2155 55.6615 30.0002C55.6615 24.4617 53.9076 19.2002 50.6768 14.7694C50.3999 14.4925 49.9384 14.4002 49.6615 14.5848Z" fill="black" fill-opacity="0.8"/>
<path d="M40.8 14.9539C40.9846 14.677 40.8923 14.2154 40.6154 14.0308C37.4769 11.9077 33.8769 10.8923 30.0923 10.8923C19.5693 10.8923 10.8923 19.477 10.8923 30.0923C10.8923 40.7077 19.4769 49.2923 30.0923 49.2923C40.7077 49.2923 49.2923 40.7077 49.2923 30.0923C49.2923 26.3077 48.1846 22.7077 46.1539 19.5693C45.9693 19.2923 45.5077 19.2 45.2308 19.3846C44.9539 19.5693 44.8616 20.0308 45.0462 20.3077C46.9846 23.1693 48 26.5846 48 30.0923C48 39.877 40.0616 47.9077 30.1846 47.9077C20.3077 47.9077 12.3693 39.9693 12.3693 30.0923C12.3693 20.2154 20.3077 12.2769 30.1846 12.2769C33.6923 12.2769 37.1077 13.2923 39.9693 15.2308C40.1539 15.4154 40.5231 15.3231 40.8 14.9539Z" fill="black" fill-opacity="0.8"/>
<path d="M36.0922 19.6617C36.2769 19.2925 36.0922 18.9232 35.8153 18.7386C34.0615 17.8155 32.0307 17.354 29.9999 17.354C22.9845 17.354 17.2615 23.0771 17.2615 30.0925C17.2615 37.1078 22.9845 42.8309 29.9999 42.8309C37.0153 42.8309 42.7384 37.1078 42.7384 30.0925C42.7384 28.0617 42.2768 26.1232 41.3538 24.2771C41.1692 23.9078 40.7999 23.8155 40.4307 24.0002C40.0615 24.1848 39.9692 24.554 40.1538 24.9232C40.9845 26.4925 41.3538 28.2463 41.3538 30.0925C41.3538 36.3694 36.2769 41.4463 29.9999 41.4463C23.723 41.4463 18.6461 36.3694 18.6461 30.0925C18.6461 23.8155 23.723 18.7386 29.9999 18.7386C31.8461 18.7386 33.5076 19.2002 35.1692 19.9386C35.4461 20.1232 35.9076 19.9386 36.0922 19.6617Z" fill="black" fill-opacity="0.8"/>
<path d="M56.7695 8.1232H52.8926L56.308 4.61551C56.5849 4.33859 56.5849 3.87705 56.308 3.60012C56.0311 3.3232 55.6618 3.41551 55.3849 3.69243L51.9695 7.10782V3.23089C51.9695 2.86166 51.6926 2.49243 51.2311 2.49243C50.7695 2.49243 50.4926 2.76935 50.4926 3.23089V8.49243L29.5387 29.5386C29.2618 29.8155 29.2618 30.277 29.5387 30.554C29.6311 30.6463 29.8157 30.7386 30.0003 30.7386C30.1849 30.7386 30.3695 30.6463 30.4618 30.554L51.508 9.50782H56.7695C57.1387 9.50782 57.508 9.23089 57.508 8.76935C57.508 8.30782 57.1387 8.1232 56.7695 8.1232Z" fill="black" fill-opacity="0.8"/>
</svg>

<svg width="60" height="60" fill="none" xmlns="http://www.w3.org/2000/svg"><path d="M30 25.108a.728.728 0 00.738-.739c0-.461-.277-.738-.738-.738-3.416 0-6.277 2.77-6.277 6.277 0 3.508 2.77 6.277 6.277 6.277 3.508 0 6.277-2.77 6.277-6.277a.728.728 0 00-.739-.739c-.461 0-.738.277-.738.739 0 2.677-2.216 4.892-4.892 4.892-2.677 0-4.893-2.215-4.893-4.892 0-2.677 2.308-4.8 4.985-4.8z" fill="#000" fill-opacity=".8"/><path d="M49.661 14.585c-.276.184-.369.646-.184.923 3.138 4.154 4.708 9.138 4.708 14.4 0 13.477-10.8 24.277-24.185 24.277-13.385 0-24.277-10.8-24.277-24.185C5.723 16.616 16.615 5.723 30 5.723a24.223 24.223 0 0114.4 4.708c.277.185.738.185.923-.185.185-.277.185-.738-.185-.923C40.708 6 35.446 4.34 29.908 4.34 15.877 4.339 4.338 15.877 4.338 30S15.785 55.662 30 55.662A25.607 25.607 0 0055.66 30c0-5.538-1.753-10.8-4.984-15.23-.277-.277-.739-.37-1.016-.185z" fill="#000" fill-opacity=".8"/><path d="M40.8 14.954c.185-.277.092-.739-.185-.923-3.138-2.123-6.738-3.139-10.523-3.139-10.523 0-19.2 8.585-19.2 19.2 0 10.616 8.585 19.2 19.2 19.2 10.616 0 19.2-8.584 19.2-19.2 0-3.784-1.107-7.384-3.138-10.523-.185-.277-.646-.369-.923-.184-.277.184-.37.646-.185.923C46.985 23.169 48 26.585 48 30.092c0 9.785-7.938 17.816-17.815 17.816a17.767 17.767 0 01-17.816-17.816 17.767 17.767 0 0117.816-17.815c3.507 0 6.923 1.015 9.784 2.954.185.184.554.092.831-.277z" fill="#000" fill-opacity=".8"/><path d="M36.092 19.662c.185-.37 0-.739-.277-.923-1.753-.924-3.784-1.385-5.815-1.385-7.015 0-12.738 5.723-12.738 12.739 0 7.015 5.723 12.738 12.738 12.738s12.738-5.723 12.738-12.739c0-2.03-.461-3.969-1.384-5.815-.185-.37-.554-.462-.923-.277-.37.185-.462.554-.277.923.83 1.57 1.2 3.323 1.2 5.17A11.346 11.346 0 0130 41.446a11.346 11.346 0 01-11.354-11.353A11.346 11.346 0 0130 18.739c1.846 0 3.508.461 5.17 1.2.276.184.738 0 .922-.277z" fill="#000" fill-opacity=".8"/><path d="M56.77 8.123h-3.877l3.415-3.507a.724.724 0 000-1.016c-.277-.277-.646-.184-.923.092l-3.416 3.416V3.23a.728.728 0 00-.738-.739c-.462 0-.738.277-.738.739v5.261L29.539 29.54a.724.724 0 000 1.015.706.706 0 00.461.185c.185 0 .37-.093.462-.185L51.508 9.508h5.261c.37 0 .739-.277.739-.739 0-.461-.37-.646-.739-.646z" fill="#000" fill-opacity=".8"/></svg>
